lib/healthicons/icons/outline/typography/J.svg

<svg fill="none" height="48" viewBox="0 0 48 48" width="48" xmlns="http://www.w3.org/2000/svg"><path clip-rule="evenodd" d="m27 12c0-1.6569 1.3431-3 3-3s3 1.3431 3 3v18c0 4.9706-4.0294 9-9 9s-9-4.0294-9-9c0-1.6568 1.3431-3 3-3s3 1.3432 3 3c0 1.6569 1.3431 3 3 3s3-1.3431 3-3zm3-1c-.5523 0-1 .4477-1 1v18c0 2.7614-2.2386 5-5 5s-5-2.2386-5-5c0-.5523-.4477-1-1-1s-1 .4477-1 1c0 3.866 3.134 7 7 7s7-3.134 7-7v-18c0-.5523-.4477-1-1-1z" fill="#333" fill-rule="evenodd"/></svg>

<svg width="48" height="48" viewBox="0 0 48 48" fill="none" xmlns="http://www.w3.org/2000/svg">
<path fill-rule="evenodd" clip-rule="evenodd" d="M27 12C27 10.3431 28.3431 9 30 9C31.6569 9 33 10.3431 33 12V30C33 34.9706 28.9706 39 24 39C19.0294 39 15 34.9706 15 30C15 28.3432 16.3431 27 18 27C19.6569 27 21 28.3432 21 30C21 31.6569 22.3431 33 24 33C25.6569 33 27 31.6569 27 30V12ZM30 11C29.4477 11 29 11.4477 29 12V30C29 32.7614 26.7614 35 24 35C21.2386 35 19 32.7614 19 30C19 29.4477 18.5523 29 18 29C17.4477 29 17 29.4477 17 30C17 33.866 20.134 37 24 37C27.866 37 31 33.866 31 30V12C31 11.4477 30.5523 11 30 11Z" fill="#333333"/>
</svg>
